icons/svg/chrome-restore.svg

<svg width="24" height="24" viewBox="0 0 24 24" fill="none" xmlns="http://www.w3.org/2000/svg">
<path d="M2.75 9.75C2.75 7.54086 4.54086 5.75 6.75 5.75H14.25C16.4591 5.75 18.25 7.54086 18.25 9.75V17.25C18.25 19.4591 16.4591 21.25 14.25 21.25H6.75C4.54086 21.25 2.75 19.4591 2.75 17.25V9.75Z" stroke="currentColor" stroke-width="1.5" stroke-linecap="round" stroke-linejoin="round"/>
<path d="M15.25 2H9.75C8.38386 2 7.15243 2.57673 6.28588 3.5H9.75H15.25C18.1495 3.5 20.5 5.8505 20.5 8.75V14.25V17.7141C21.4233 16.8476 22 15.6161 22 14.25V8.75C22 5.02208 18.9779 2 15.25 2Z" fill="currentColor"/>
</svg>

<svg xmlns="http://www.w3.org/2000/svg" width="24" height="24" fill="none" viewBox="0 0 24 24"><path stroke="currentColor" stroke-linecap="round" stroke-linejoin="round" stroke-width="1.5" d="M2.75 9.75a4 4 0 0 1 4-4h7.5a4 4 0 0 1 4 4v7.5a4 4 0 0 1-4 4h-7.5a4 4 0 0 1-4-4z"/><path fill="currentColor" d="M15.25 2h-5.5a4.74 4.74 0 0 0-3.464 1.5h8.964c2.9 0 5.25 2.35 5.25 5.25v8.964A4.74 4.74 0 0 0 22 14.25v-5.5A6.75 6.75 0 0 0 15.25 2"/></svg>
